X: 27333
T: Mist In The Morning
R: jig
M: 6/8
K: Amajor
|:A3 A2E|ABA AEA|cBc AGA|B2c dcB|
cBc A2E|ABA Acd|efe edc|B2c d2B:|
|:c2e efe|efe edB|c2e efe|f2g ~a3|
c2e efe|efe efg|agf edc|B2c d2B:|

